X: 1818
T: Indeed Then You Wont   #1
N: The title doesn't have an apostrophe.
R: jig
%S: s:2 b:16(8+8)
B: O'Neill's 1850 #1818
Z: Bob Safranek, rjs@gsp.org
Z: Compacted via repeats and multiple endings [JC]
M: 6/8
L: 1/8
K: G
d | gfe d2B | cBA [1,3 BAG | gfe d2B | cAF G2 :|[2,4 GBd | gbg d2B | cAF G2 :|
|: G | FGA A2d | cAd cAG |[1,3 FGA A2d | cAF G2 :|[2,4 gbg d2B | cAF G2 :|
